icons/fill-new-office-doc-document-circle-add-plus.svg

<svg xmlns="http://www.w3.org/2000/svg" width="32px" height="32px" viewBox="0 0 32 32" version="1.1">
    <title>fill-new-office-doc-document-circle-add-plus</title>
    <g id="fill-new-office-doc-document-circle-add-plus" stroke-width="1" fill-rule="evenodd">
        <path d="M23,17 C26.8659932,17 30,20.1340068 30,24 C30,27.8659932 26.8659932,31 23,31 C19.1340068,31 16,27.8659932 16,24 C16,20.1340068 19.1340068,17 23,17 Z M27,2 C27.5522847,2 28,2.44771525 28,3 L28.00121,16.5163591 C26.570872,15.5585866 24.8506685,15 23,15 C18.0294373,15 14,19.0294373 14,24 C14,26.3053753 14.8667953,28.4082996 16.2922591,30.0006464 L5,30 C4.44771525,30 4,29.5522847 4,29 L4,3 C4,2.44771525 4.44771525,2 5,2 L27,2 Z M23,20 C22.4477153,20 22,20.4477153 22,21 L22,23 L20,23 C19.4871642,23 19.0644928,23.3860402 19.0067277,23.8833789 L19,24 C19,24.5522847 19.4477153,25 20,25 L22,25 L22,27 C22,27.5128358 22.3860402,27.9355072 22.8833789,27.9932723 L23,28 C23.5522847,28 24,27.5522847 24,27 L24,25 L26,25 C26.5128358,25 26.9355072,24.6139598 26.9932723,24.1166211 L27,24 C27,23.4477153 26.5522847,23 26,23 L24,23 L24,21 C24,20.4871642 23.6139598,20.0644928 23.1166211,20.0067277 L23,20 Z M15,14 L11,14 C10.4477153,14 10,14.4477153 10,15 C10,15.5522847 10.4477153,16 11,16 L15,16 C15.5522847,16 16,15.5522847 16,15 C16,14.4477153 15.5522847,14 15,14 Z M21,8 L11,8 C10.4477153,8 10,8.44771525 10,9 C10,9.55228475 10.4477153,10 11,10 L21,10 C21.5522847,10 22,9.55228475 22,9 C22,8.44771525 21.5522847,8 21,8 Z" id="&#24418;&#29366;" />
    </g>
</svg>

<svg xmlns="http://www.w3.org/2000/svg" viewBox="0 0 32 32"><path fill="currentColor" d="M23 17a7 7 0 1 1 0 14 7 7 0 0 1 0-14m4-15a1 1 0 0 1 1 1l.001 13.516A9 9 0 0 0 16.292 30H5a1 1 0 0 1-1-1V3a1 1 0 0 1 1-1zm-4 18a1 1 0 0 0-1 1v2h-2a1 1 0 0 0-.993.883L19 24a1 1 0 0 0 1 1h2v2a1 1 0 0 0 .883.993L23 28a1 1 0 0 0 1-1v-2h2a1 1 0 0 0 .993-.883L27 24a1 1 0 0 0-1-1h-2v-2a1 1 0 0 0-.883-.993zm-8-6h-4a1 1 0 0 0 0 2h4a1 1 0 0 0 0-2m6-6H11a1 1 0 0 0 0 2h10a1 1 0 0 0 0-2"/></svg>
